packages/foundations/assets/icons/functional/images/file/document_28.svg

<svg width="28" height="28" viewBox="0 0 28 28" fill="none" xmlns="http://www.w3.org/2000/svg">
<g clip-path="url(#clip0_2207_3227)">
<path fill-rule="evenodd" clip-rule="evenodd" d="M17.1992 1.75C17.7188 1.75 18.2109 1.96875 18.5938 2.32426L22.1757 5.90625C22.5585 6.28906 22.75 6.78125 22.75 7.30083V24.2812C22.75 25.375 21.875 26.25 20.7812 26.25H7.21875C6.125 26.25 5.25 25.375 5.25 24.2812V3.71875C5.25 2.625 6.125 1.75 7.21875 1.75H17.1992ZM15.75 3.5H7.21875C7.10938 3.5 7 3.60938 7 3.71875V24.2812C7 24.3906 7.10938 24.5 7.21875 24.5H20.7812C20.8906 24.5 21 24.3906 21 24.2812V8.75H16.625C16.1328 8.75 15.75 8.36719 15.75 7.875V3.5ZM17.5 3.69145V7H20.8086L17.5 3.69145ZM8.75 20.125C8.75 20.6172 9.13281 21 9.625 21H18.375C18.8672 21 19.25 20.6172 19.25 20.125C19.25 19.6328 18.8672 19.25 18.375 19.25H9.625C9.13281 19.25 8.75 19.6328 8.75 20.125ZM8.75 16.625C8.75 17.1172 9.13281 17.5 9.625 17.5H18.375C18.8672 17.5 19.25 17.1172 19.25 16.625C19.25 16.1328 18.8672 15.75 18.375 15.75H9.625C9.13281 15.75 8.75 16.1328 8.75 16.625ZM8.75 13.125C8.75 13.6172 9.13281 14 9.625 14H18.375C18.8672 14 19.25 13.6172 19.25 13.125C19.25 12.6328 18.8672 12.25 18.375 12.25H9.625C9.13281 12.25 8.75 12.6328 8.75 13.125Z" fill="#1A1C1F"/>
</g>
<defs>
<clipPath id="clip0_2207_3227">
<rect width="28" height="28" fill="white"/>
</clipPath>
</defs>
</svg>

<svg xmlns="http://www.w3.org/2000/svg" width="28" height="28" fill="none"><g clip-path="url(#a)"><path fill="#1A1C1F" fill-rule="evenodd" d="M17.2 1.75c.519 0 1.01.219 1.394.574l3.582 3.582c.383.383.574.875.574 1.395v16.98a1.96 1.96 0 0 1-1.969 1.969H7.22a1.96 1.96 0 0 1-1.969-1.969V3.72A1.96 1.96 0 0 1 7.219 1.75zM15.75 3.5H7.219c-.11 0-.219.11-.219.219V24.28c0 .11.11.219.219.219H20.78c.11 0 .219-.11.219-.219V8.75h-4.375a.864.864 0 0 1-.875-.875zm1.75.191V7h3.309zM8.75 20.125c0 .492.383.875.875.875h8.75a.864.864 0 0 0 .875-.875.864.864 0 0 0-.875-.875h-8.75a.864.864 0 0 0-.875.875m0-3.5c0 .492.383.875.875.875h8.75a.864.864 0 0 0 .875-.875.864.864 0 0 0-.875-.875h-8.75a.864.864 0 0 0-.875.875m0-3.5c0 .492.383.875.875.875h8.75a.864.864 0 0 0 .875-.875.864.864 0 0 0-.875-.875h-8.75a.864.864 0 0 0-.875.875" clip-rule="evenodd"/></g><defs><clipPath id="a"><path fill="#fff" d="M0 0h28v28H0z"/></clipPath></defs></svg>
